src/assets/icons/setting.svg

<svg width="24" height="24" viewBox="0 0 24 24" fill="none" xmlns="http://www.w3.org/2000/svg">
<path fill-rule="evenodd" clip-rule="evenodd" d="M2.28174 17.1839C2.28174 16.5856 2.76676 16.1006 3.36507 16.1006H10.1908C10.7892 16.1006 11.2742 16.5856 11.2742 17.1839C11.2742 17.7822 10.7892 18.2673 10.1908 18.2673H3.36507C2.76676 18.2673 2.28174 17.7822 2.28174 17.1839Z" fill="white"/>
<path fill-rule="evenodd" clip-rule="evenodd" d="M12.1523 6.68392C12.1523 6.08561 12.6374 5.60059 13.2357 5.60059H20.0615C20.6598 5.60059 21.1448 6.08561 21.1448 6.68392C21.1448 7.28223 20.6598 7.76725 20.0615 7.76725H13.2357C12.6374 7.76725 12.1523 7.28223 12.1523 6.68392Z" fill="white"/>
<path fill-rule="evenodd" clip-rule="evenodd" d="M2.25 6.62511C2.25 4.61586 3.8887 3 5.89341 3C7.89811 3 9.53681 4.61586 9.53681 6.62511C9.53681 8.63436 7.89811 10.2502 5.89341 10.2502C3.8887 10.2502 2.25 8.63436 2.25 6.62511ZM5.89341 5.16667C5.07064 5.16667 4.41667 5.8271 4.41667 6.62511C4.41667 7.42311 5.07064 8.08355 5.89341 8.08355C6.71617 8.08355 7.37015 7.42311 7.37015 6.62511C7.37015 5.8271 6.71617 5.16667 5.89341 5.16667Z" fill="white"/>
<path fill-rule="evenodd" clip-rule="evenodd" d="M14.4634 17.1417C14.4634 15.1322 16.1023 13.5166 18.1077 13.5166C20.1129 13.5166 21.7502 15.1329 21.7502 17.1417C21.7502 19.1505 20.1129 20.7668 18.1077 20.7668C16.1023 20.7668 14.4634 19.1512 14.4634 17.1417ZM18.1077 15.6833C17.2838 15.6833 16.63 16.3439 16.63 17.1417C16.63 17.9395 17.2838 18.6002 18.1077 18.6002C18.9299 18.6002 19.5835 17.9402 19.5835 17.1417C19.5835 16.3432 18.9299 15.6833 18.1077 15.6833Z" fill="white"/>
</svg>

<svg width="24" height="24" fill="none" xmlns="http://www.w3.org/2000/svg"><path fill-rule="evenodd" clip-rule="evenodd" d="M2.282 17.184c0-.598.485-1.083 1.083-1.083h6.826a1.083 1.083 0 1 1 0 2.166H3.365a1.083 1.083 0 0 1-1.083-1.083M12.152 6.684c0-.598.485-1.083 1.084-1.083h6.825a1.083 1.083 0 0 1 0 2.166h-6.825a1.083 1.083 0 0 1-1.084-1.083M2.25 6.625C2.25 4.615 3.889 3 5.893 3c2.005 0 3.644 1.616 3.644 3.625S7.898 10.25 5.893 10.25 2.25 8.634 2.25 6.625m3.643-1.458c-.822 0-1.476.66-1.476 1.458s.654 1.459 1.476 1.459c.823 0 1.477-.66 1.477-1.459 0-.798-.654-1.458-1.477-1.458M14.463 17.142c0-2.01 1.64-3.625 3.645-3.625s3.642 1.616 3.642 3.625-1.637 3.625-3.642 3.625-3.645-1.616-3.645-3.625m3.645-1.459c-.824 0-1.478.66-1.478 1.459 0 .797.654 1.458 1.478 1.458.822 0 1.476-.66 1.476-1.458 0-.799-.654-1.459-1.476-1.459" fill="#fff"/></svg>
